assets/img/icons/payment-methods/verve.svg

<svg width="750" height="471" viewBox="0 0 750 471" version="1.1" xmlns="http://www.w3.org/2000/svg" xmlns:xlink="http://www.w3.org/1999/xlink">
    <!-- Generator: Sketch 48.2 (47327) - http://www.bohemiancoding.com/sketch -->
    <desc>Created with Sketch.</desc>
    <defs></defs>
    <g id="Page-1" stroke="none" stroke-width="1" fill="none" fill-rule="evenodd">
        <g id="verve" fill-rule="nonzero">
            <rect id="Rectangle-path" fill="#00425F" x="0" y="0" width="750" height="471" rx="40"></rect>
            <circle id="Oval" fill="#EE312A" cx="156.26347" cy="215.5" r="115.26347"></circle>
            <path d="M156.26347,264.87251 C130.48369,206.43174 111.57857,151.84021 111.57857,151.84021 L72.05384,151.84021 C72.05384,151.84021 96.11071,221.91184 140.79561,309.54065 L171.73134,309.54065 C216.41624,221.91184 240.47311,151.84021 240.47311,151.84021 L200.94837,151.84021 C200.94837,151.84021 182.04325,206.43174 156.26347,264.87251 Z" id="Shape" fill="#FFFFFF"></path>
            <path d="M708.04515,257.60566 L630.71641,257.60566 C630.71641,257.60566 632.43441,283.3869 666.80307,283.3869 C683.98685,283.3869 701.17192,278.22677 701.17192,278.22677 L704.60925,305.72097 C704.60925,305.72097 687.42418,312.59491 663.36588,312.59491 C628.99845,312.59491 598.06688,295.41041 598.06688,247.29525 C598.06688,209.48978 622.12375,185.4322 656.4926,185.4322 C708.04515,185.4322 711.48248,236.98469 708.04515,257.60566 Z M654.77471,209.48978 C632.43436,209.48978 630.71641,233.54736 630.71641,233.54736 L678.83158,233.54736 C678.83158,233.54736 677.11363,209.48978 654.77471,209.48978 Z" id="Shape" fill="#FFFFFF"></path>
            <path d="M442.3337,216.74823 L447.48884,189.25332 C447.48884,189.25332 407.67636,177.17202 375.31538,199.56388 L375.31538,309.54067 L409.68552,309.54067 L409.68281,220.18485 C423.42925,209.87443 442.3337,216.74823 442.3337,216.74823 Z" id="Shape" fill="#FFFFFF"></path>
            <path d="M348.41613,257.60566 L271.08739,257.60566 C271.08739,257.60566 272.80539,283.3869 307.17405,283.3869 C324.35783,283.3869 341.54148,278.22677 341.54148,278.22677 L344.97881,305.72097 C344.97881,305.72097 327.79517,312.59491 303.73687,312.59491 C269.36802,312.59491 238.43649,295.41041 238.43649,247.29525 C238.43649,209.48978 262.49479,185.4322 296.86364,185.4322 C348.41613,185.4322 351.852,236.98469 348.41613,257.60566 Z M295.14426,209.48978 C272.80534,209.48978 271.08739,233.54736 271.08739,233.54736 L319.20256,233.54736 C319.20256,233.54736 317.4846,209.48978 295.14426,209.48978 Z" id="Shape" fill="#FFFFFF"></path>
            <path d="M525.80355,268.32373 C515.12048,242.341853 506.501709,215.55843 500.02729,188.22223 L465.66129,188.22677 C465.66129,188.22677 482.845,254.57171 512.05993,309.5462 L539.54717,309.5462 C568.76212,254.57171 585.94581,188.239 585.94581,188.239 L551.57981,188.239 C545.103957,215.569341 536.48521,242.34708 525.80355,268.32373 Z" id="Shape" fill="#FFFFFF"></path>
        </g>
    </g>
</svg>

<svg width="750" height="471" xmlns="http://www.w3.org/2000/svg"><g fill="none"><rect fill="#00425F" width="750" height="471" rx="40"/><circle fill="#EE312A" cx="156.263" cy="215.5" r="115.263"/><path d="M156.263 264.873c-25.78-58.441-44.684-113.033-44.684-113.033H72.054s24.057 70.072 68.742 157.7h30.935c44.685-87.628 68.742-157.7 68.742-157.7h-39.525s-18.905 54.592-44.685 113.033zm551.782-7.267h-77.329s1.718 25.78 36.087 25.78c17.184 0 34.369-5.16 34.369-5.16l3.437 27.495s-17.185 6.874-41.243 6.874c-34.368 0-65.3-17.185-65.3-65.3 0-37.805 24.058-61.863 58.427-61.863 51.552 0 54.99 51.553 51.552 72.174zm-53.27-48.116c-22.34 0-24.059 24.057-24.059 24.057h48.116s-1.718-24.057-24.057-24.057zm-212.441 7.258l5.155-27.495s-39.813-12.081-72.174 10.31v109.978h34.37l-.002-89.356c13.746-10.31 32.65-3.437 32.65-3.437zm-93.918 40.858h-77.329s1.718 25.78 36.087 25.78c17.184 0 34.367-5.16 34.367-5.16l3.438 27.495s-17.184 6.874-41.242 6.874c-34.369 0-65.3-17.185-65.3-65.3 0-37.805 24.058-61.863 58.427-61.863 51.552 0 54.988 51.553 51.552 72.174zm-53.272-48.116c-22.339 0-24.057 24.057-24.057 24.057h48.116s-1.718-24.057-24.059-24.057zm230.66 58.834a534.672 534.672 0 01-25.777-80.102l-34.366.005s17.184 66.345 46.399 121.32h27.487c29.215-54.975 46.399-121.308 46.399-121.308H551.58a534.82 534.82 0 01-25.776 80.085z" fill="#FFF"/></g></svg>
